X:6459
T:Terribus
O:england
M:2/4
L:1/8
R:March
K:D
A|"D"dA d>e|"D"fa fd|"Em"g>f e>d|"A"ce cA|"D"dA d>e|"D"fa fd|"A"g>f e>a|
1 "D"fd d:||2 "D"fd d/e/f/g/||"D"a2 a>g|"D"fa fd|"Em"g>f e>d|"A"ce cA|"D
"
a2 a>g|"D"fa fd|"A"g>f e>a|"D"fd d/e/f/g/|"D"a2 a>g|"D"fa fd|"Em"g>f e>d
|"A"ce cA|"D"dA d>e|"D"fa fd|"A"g>f e>a| "D"fd d||


